src/assets/icons/pizza.svg

<svg width="33" height="32" viewBox="0 0 33 32" fill="none" xmlns="http://www.w3.org/2000/svg">
<path d="M26.6551 23.0051C26.7383 23.8688 26.4347 24.7163 25.8215 25.3302C25.2082 25.944 24.3629 26.2475 23.498 26.165C22.7804 26.0956 22.0949 26.4909 21.7957 27.1487C21.4359 27.9389 20.7492 28.5207 19.9117 28.7453C19.0734 28.9698 18.1886 28.8099 17.4832 28.3057C17.3632 28.22 17.2334 28.1564 17.1 28.1056V32C22.5467 31.7977 27.3039 28.8586 30.0394 24.5178L26.6736 22.5728C26.6508 22.7138 26.6409 22.8582 26.6551 23.0051Z" fill="#FF7010"/>
<path d="M13.8399 28.8447C13.5891 28.8447 13.3367 28.812 13.0883 28.7454C12.2508 28.5209 11.5641 27.9391 11.2043 27.1491C10.9047 26.4907 10.2184 26.0962 9.50159 26.165C8.63596 26.2467 7.79143 25.9439 7.17854 25.3302C6.56526 24.7163 6.26174 23.8689 6.34495 23.005C6.35906 22.8581 6.34919 22.7138 6.32639 22.5728L2.96057 24.5179C5.69607 28.8587 10.4533 31.7977 15.9 32V28.1057C15.7666 28.1564 15.6368 28.22 15.5168 28.3057C15.0203 28.6603 14.4348 28.8447 13.8399 28.8447Z" fill="#FF7010"/>
<path d="M13.3988 4.41489C12.9086 4.54646 12.507 4.88682 12.2965 5.34917C11.7848 6.47387 10.6086 7.1503 9.38673 7.03085C8.88087 6.98217 8.38595 7.15988 8.02736 7.5192C7.66837 7.87833 7.49064 8.37431 7.53947 8.87987C7.57838 9.28433 7.52404 9.67963 7.40363 10.0499L15.9 14.96V5.13955C15.5194 5.05878 15.1503 4.90827 14.8199 4.67236C14.407 4.37715 13.8887 4.2839 13.3988 4.41489ZM13.567 10.9151C12.6613 11.4385 11.5032 11.1279 10.9804 10.2214C10.4575 9.31486 10.7678 8.1557 11.6734 7.63232C12.5791 7.10895 13.7372 7.41955 14.2601 8.32605C14.7829 9.23257 14.4726 10.3917 13.567 10.9151Z" fill="#FF7010"/>
<path d="M5.36172 21.3005C4.57266 20.941 3.99141 20.2539 3.7668 19.4156C3.54219 18.5771 3.70234 17.6909 4.20625 16.9843C4.62578 16.3957 4.62578 15.6047 4.20625 15.0163C3.70234 14.3095 3.54219 13.4233 3.7668 12.5848C3.99141 11.7465 4.57266 11.0594 5.36172 10.6997C5.4959 10.6385 5.61582 10.5578 5.72637 10.4676L2.35801 8.521C1.17388 10.7551 0.5 13.2999 0.5 16.0002C0.5 18.7005 1.17388 21.2453 2.35801 23.4794L5.72647 21.5328C5.61587 21.4425 5.4959 21.3618 5.36172 21.3005Z" fill="#FF7010"/>
<path d="M19.9117 3.25468C20.7492 3.47911 21.4359 4.06092 21.7957 4.85092C22.0949 5.50936 22.7804 5.90466 23.4984 5.83506C24.3613 5.75198 25.2086 6.05617 25.8215 6.66984C26.4347 7.28371 26.7383 8.13119 26.6551 8.9951C26.6409 9.14197 26.6508 9.28629 26.6736 9.4273L30.0394 7.48218C27.3039 3.14139 22.5467 0.202316 17.1 0V3.89438C17.2334 3.84364 17.3632 3.78003 17.4832 3.69436C18.1886 3.19017 19.0734 3.02966 19.9117 3.25468Z" fill="#FF7010"/>
<path d="M4.92577 19.1043C5.05702 19.5948 5.39726 19.9969 5.85937 20.2073C6.22866 20.3758 6.54345 20.6205 6.80366 20.91L15.3001 16L6.80361 11.0898C6.54345 11.3793 6.22861 11.624 5.85937 11.7924C5.39726 12.003 5.05702 12.4051 4.92577 12.8956C4.79452 13.3861 4.88827 13.9048 5.18281 14.3183C5.90038 15.3241 5.90038 16.6758 5.18281 17.6818C4.88827 18.0951 4.79452 18.6138 4.92577 19.1043ZM8.74042 14.1046C9.78618 14.1046 10.6339 14.9532 10.6339 16C10.6339 17.0467 9.78618 17.8953 8.74042 17.8953C7.69462 17.8953 6.84687 17.0467 6.84687 16C6.84687 14.9532 7.69462 14.1046 8.74042 14.1046Z" fill="#FF7010"/>
<path d="M2.96057 7.48218L6.32639 9.42727C6.34924 9.28622 6.35906 9.14184 6.34495 8.9949C6.26174 8.13119 6.56526 7.28371 7.17854 6.66984C7.79182 6.05598 8.63713 5.75237 9.50198 5.83506C10.2172 5.90564 10.9051 5.50897 11.2043 4.85132C11.5641 4.06111 12.2508 3.47931 13.0883 3.25468C13.9262 3.03005 14.811 3.19017 15.5168 3.69436C15.6368 3.78003 15.7666 3.84364 15.9 3.89438V0C10.4533 0.202316 5.69607 3.14139 2.96057 7.48218Z" fill="#FF7010"/>
<path d="M30.642 8.521L27.2736 10.4676C27.3842 10.5579 27.5041 10.6386 27.6383 10.6998C28.4274 11.0594 29.0086 11.7465 29.2332 12.5848C29.4578 13.4233 29.2977 14.3095 28.7938 15.0161C28.3742 15.6047 28.3742 16.3957 28.7938 16.9841C29.2977 17.6909 29.4578 18.5771 29.2332 19.4156C29.0086 20.2539 28.4274 20.941 27.6383 21.3007C27.5041 21.3619 27.3842 21.4426 27.2737 21.5328L30.642 23.4794C31.8261 21.2453 32.5 18.7005 32.5 16.0002C32.5 13.2999 31.8261 10.7551 30.642 8.521Z" fill="#FF7010"/>
<path d="M7.53947 23.12C7.49064 23.6257 7.66837 24.1217 8.02736 24.4808C8.38595 24.84 8.88517 25.0163 9.38634 24.9692C10.6192 24.8495 11.7852 25.5267 12.2965 26.6509C12.507 27.113 12.9086 27.4536 13.3988 27.5851C13.8883 27.7165 14.407 27.6229 14.8199 27.3277C15.1503 27.0918 15.5194 26.9412 15.9 26.8604V17.04L7.40363 21.9501C7.52404 22.3203 7.57838 22.7156 7.53947 23.12ZM10.9804 21.7786C11.5032 20.8721 12.6613 20.5615 13.567 21.0849C14.4726 21.6083 14.7829 22.7675 14.2601 23.674C13.7372 24.5805 12.5791 24.8911 11.6734 24.3677C10.7678 23.8443 10.4575 22.6852 10.9804 21.7786Z" fill="#FF7010"/>
<path d="M19.6011 27.5851C20.0914 27.4536 20.4929 27.1132 20.7035 26.6509C21.2152 25.5264 22.3914 24.8517 23.6133 24.9692C24.1176 25.0159 24.614 24.8398 24.9726 24.4808C25.3316 24.1217 25.5093 23.6257 25.4605 23.1202C25.4216 22.7157 25.476 22.3204 25.5964 21.9501L17.1 17.04V26.8604C17.4805 26.9412 17.8497 27.0917 18.1801 27.3277C18.5933 27.6231 19.1121 27.7167 19.6011 27.5851ZM19.433 21.0849C20.3386 20.5615 21.4968 20.8721 22.0196 21.7786C22.5425 22.6851 22.2322 23.8443 21.3265 24.3677C20.4209 24.8911 19.2628 24.5805 18.7399 23.674C18.2171 22.7675 18.5274 21.6083 19.433 21.0849Z" fill="#FF7010"/>
<path d="M28.0742 12.8956C27.9429 12.4051 27.6027 12.003 27.1406 11.7926C26.7713 11.6241 26.4565 11.3794 26.1963 11.0898L17.6998 15.9999L26.1964 20.91C26.4565 20.6206 26.7713 20.3759 27.1406 20.2074C27.6027 19.9969 27.9429 19.5948 28.0742 19.1042C28.2054 18.6137 28.1117 18.0951 27.8172 17.6816C27.0996 16.6758 27.0996 15.3241 27.8172 14.3181C28.1117 13.9048 28.2054 13.3861 28.0742 12.8956ZM24.2595 17.8952C23.2138 17.8952 22.366 17.0467 22.366 15.9999C22.366 14.9532 23.2138 14.1046 24.2595 14.1046C25.3053 14.1046 26.1531 14.9532 26.1531 15.9999C26.1531 17.0467 25.3053 17.8952 24.2595 17.8952Z" fill="#FF7010"/>
<path d="M25.4605 8.88015C25.5093 8.3744 25.3316 7.87842 24.9726 7.51929C24.614 7.16016 24.1144 6.98265 23.6136 7.03093C22.3812 7.14921 21.2148 6.47357 20.7035 5.34926C20.4929 4.8871 20.0914 4.54654 19.6011 4.41497C19.1117 4.28379 18.5933 4.37724 18.1801 4.67244C17.8497 4.90836 17.4805 5.05887 17.1 5.13963V14.9601L25.5964 10.05C25.476 9.67979 25.4216 9.28454 25.4605 8.88015ZM22.0196 10.2215C21.4968 11.128 20.3386 11.4386 19.433 10.9152C18.5274 10.3918 18.2171 9.23266 18.7399 8.32614C19.2628 7.41963 20.4209 7.10904 21.3265 7.63241C22.2322 8.15578 22.5425 9.31494 22.0196 10.2215Z" fill="#FF7010"/>
</svg>

<svg xmlns="http://www.w3.org/2000/svg" width="33" height="32" fill="none"><path fill="#FF7010" d="M26.655 23.005a2.887 2.887 0 0 1-.834 2.325 2.883 2.883 0 0 1-2.323.835 1.693 1.693 0 0 0-1.702.984 2.885 2.885 0 0 1-1.884 1.596 2.88 2.88 0 0 1-2.429-.44c-.12-.085-.25-.149-.383-.2V32c5.447-.202 10.204-3.141 12.94-7.482l-3.366-1.945a1.684 1.684 0 0 0-.019.432ZM13.84 28.845a2.9 2.9 0 0 1-2.636-1.696 1.695 1.695 0 0 0-1.702-.984 2.884 2.884 0 0 1-2.323-.835 2.887 2.887 0 0 1-.834-2.325 1.687 1.687 0 0 0-.019-.432l-3.365 1.945c2.735 4.34 7.492 7.28 12.939 7.482v-3.894a1.68 1.68 0 0 0-.383.2 2.881 2.881 0 0 1-1.677.539ZM13.399 4.415c-.49.131-.892.472-1.102.934a2.897 2.897 0 0 1-2.91 1.682c-.506-.049-1.001.129-1.36.488-.359.36-.536.855-.488 1.36.04.405-.015.8-.135 1.17L15.9 14.96V5.14c-.38-.081-.75-.232-1.08-.468a1.687 1.687 0 0 0-1.421-.257Zm.168 6.5a1.892 1.892 0 0 1-2.587-.694 1.896 1.896 0 0 1 .693-2.589 1.893 1.893 0 0 1 2.587.694 1.896 1.896 0 0 1-.693 2.59ZM5.362 21.3a2.884 2.884 0 0 1-1.595-1.884 2.887 2.887 0 0 1 .44-2.432c.419-.588.419-1.38 0-1.968a2.888 2.888 0 0 1-.44-2.431A2.885 2.885 0 0 1 5.362 10.7c.134-.061.254-.142.364-.232L2.358 8.52A15.924 15.924 0 0 0 .5 16.001c0 2.7.674 5.244 1.858 7.478l3.368-1.946c-.11-.09-.23-.171-.364-.233ZM19.912 3.255a2.884 2.884 0 0 1 1.884 1.596c.299.658.984 1.054 1.702.984a2.883 2.883 0 0 1 2.323.835c.614.614.917 1.461.834 2.325-.014.147-.004.291.019.432l3.365-1.945C27.304 3.142 22.547.202 17.1 0v3.894c.133-.05.263-.114.383-.2a2.878 2.878 0 0 1 2.429-.44Z"/><path fill="#FF7010" d="M4.926 19.104c.131.49.471.893.933 1.103.37.169.684.413.945.703L15.3 16l-8.496-4.91c-.26.29-.575.534-.945.702-.462.211-.802.613-.933 1.104-.131.49-.038 1.009.257 1.422a2.897 2.897 0 0 1 0 3.364 1.69 1.69 0 0 0-.257 1.422Zm3.814-5a1.894 1.894 0 1 1-.001 3.79 1.894 1.894 0 0 1 .001-3.79ZM2.96 7.482l3.366 1.945c.023-.14.033-.285.019-.432a2.887 2.887 0 0 1 .834-2.325 2.882 2.882 0 0 1 2.323-.835 1.694 1.694 0 0 0 1.702-.984 2.885 2.885 0 0 1 1.884-1.596 2.88 2.88 0 0 1 2.429.44c.12.085.25.149.383.2V0C10.453.202 5.696 3.141 2.96 7.482ZM30.642 8.521l-3.368 1.947c.11.09.23.17.364.232.79.36 1.37 1.046 1.595 1.885a2.887 2.887 0 0 1-.44 2.431c-.419.589-.419 1.38 0 1.968.505.707.665 1.593.44 2.432a2.885 2.885 0 0 1-1.595 1.885 1.681 1.681 0 0 0-.364.232l3.368 1.946A15.925 15.925 0 0 0 32.5 16c0-2.7-.674-5.245-1.858-7.479ZM7.54 23.12a1.695 1.695 0 0 0 1.847 1.85 2.888 2.888 0 0 1 2.91 1.68c.21.463.612.804 1.102.935.49.131 1.008.038 1.42-.257.331-.236.7-.387 1.081-.468v-9.82l-8.496 4.91c.12.37.174.766.135 1.17Zm3.44-1.341a1.892 1.892 0 0 1 2.587-.694 1.896 1.896 0 0 1 .693 2.589 1.893 1.893 0 0 1-2.587.694 1.896 1.896 0 0 1-.693-2.59ZM19.601 27.585c.49-.131.892-.472 1.102-.934a2.9 2.9 0 0 1 2.91-1.682 1.694 1.694 0 0 0 1.848-1.849c-.04-.404.015-.8.135-1.17L17.1 17.04v9.82c.38.081.75.232 1.08.468.413.295.932.389 1.421.257Zm-.168-6.5a1.893 1.893 0 0 1 2.587.694 1.896 1.896 0 0 1-.694 2.589 1.893 1.893 0 0 1-2.586-.694 1.896 1.896 0 0 1 .693-2.59Z"/><path fill="#FF7010" d="M28.074 12.896a1.687 1.687 0 0 0-.933-1.103 2.876 2.876 0 0 1-.945-.703L17.7 16l8.496 4.91c.26-.29.575-.534.945-.703.462-.21.802-.612.933-1.103.131-.49.038-1.009-.257-1.422a2.897 2.897 0 0 1 0-3.364c.295-.413.388-.932.257-1.422Zm-3.815 5a1.894 1.894 0 1 1 .002-3.79 1.894 1.894 0 0 1-.002 3.79ZM25.46 8.88a1.692 1.692 0 0 0-1.847-1.85 2.89 2.89 0 0 1-2.91-1.68 1.689 1.689 0 0 0-2.523-.678c-.33.236-.7.387-1.08.468v9.82l8.496-4.91a2.88 2.88 0 0 1-.136-1.17Zm-3.44 1.341a1.893 1.893 0 0 1-2.587.694 1.896 1.896 0 0 1-.693-2.589 1.893 1.893 0 0 1 2.587-.694 1.896 1.896 0 0 1 .693 2.59Z"/></svg>
